icons/hand-fist.svg

<svg width="24" height="24" viewBox="0 0 24 24" fill="none" xmlns="http://www.w3.org/2000/svg">
<path d="M15.75 12.3911H14.25C13.6533 12.3911 13.081 12.1438 12.659 11.7035C12.2371 11.2632 12 10.666 12 10.0433V8.47809C12 8.27053 12.079 8.07147 12.2197 7.9247C12.3603 7.77794 12.5511 7.69548 12.75 7.69548H18.75C19.3467 7.69548 19.919 7.94284 20.341 8.38314C20.7629 8.82345 21 9.42063 21 10.0433V11.6085C21 14.0993 20.0518 16.488 18.364 18.2492C16.6761 20.0104 14.3869 20.9998 12 20.9998C9.61305 20.9998 7.32387 20.0104 5.63604 18.2492C3.94821 16.488 3 14.0993 3 11.6085V9.2607M3 9.2607V7.69548C3 7.0728 3.23705 6.47562 3.65901 6.03532C4.08097 5.59502 4.65326 5.34766 5.25 5.34766C5.84674 5.34766 6.41903 5.59502 6.84099 6.03532C7.26295 6.47562 7.5 7.0728 7.5 7.69548V9.2607C7.5 9.88338 7.26295 10.4806 6.84099 10.9209C6.41903 11.3612 5.84674 11.6085 5.25 11.6085C4.65326 11.6085 4.08097 11.3612 3.65901 10.9209C3.23705 10.4806 3 9.88338 3 9.2607Z" stroke="#1E293B" stroke-width="2" stroke-linecap="round" stroke-linejoin="round"/>
<path d="M12 5.34783C12 4.72514 12.2371 4.12797 12.659 3.68766C13.081 3.24736 13.6533 3 14.25 3C14.8467 3 15.419 3.24736 15.841 3.68766C16.2629 4.12797 16.5 4.72514 16.5 5.34783V7.69565" stroke="#1E293B" stroke-width="2" stroke-linecap="round" stroke-linejoin="round"/>
<path d="M12 9.26087C12 9.88355 11.7629 10.4807 11.341 10.921C10.919 11.3613 10.3467 11.6087 9.75 11.6087C9.15326 11.6087 8.58097 11.3613 8.15901 10.921C7.73705 10.4807 7.5 9.88355 7.5 9.26087V5.34783C7.5 4.72514 7.73705 4.12797 8.15901 3.68766C8.58097 3.24736 9.15326 3 9.75 3C10.3467 3 10.919 3.24736 11.341 3.68766C11.7629 4.12797 12 4.72514 12 5.34783V9.26087Z" stroke="#1E293B" stroke-width="2" stroke-linecap="round" stroke-linejoin="round"/>
<path d="M12 16.3042C12 15.2664 12.3951 14.2711 13.0983 13.5372C13.8016 12.8034 14.7554 12.3911 15.75 12.3911" stroke="#1E293B" stroke-width="2" stroke-linecap="round" stroke-linejoin="round"/>
</svg>

<svg
  width="24"
  height="24"
  viewBox="0 0 24 24"
  xmlns="http://www.w3.org/2000/svg"
  fill="none"
  stroke="currentColor"
  stroke-width="2"
  stroke-linecap="round"
  stroke-linejoin="round"
>
  <path d="M15.75 12.391h-1.5a2.204 2.204 0 0 1-1.591-.688 2.4 2.4 0 0 1-.659-1.66V8.478a.8.8 0 0 1 .22-.553.734.734 0 0 1 .53-.23h6c.597 0 1.169.248 1.591.688a2.4 2.4 0 0 1 .659 1.66v1.566c0 2.49-.948 4.879-2.636 6.64C16.676 20.01 14.387 21 12 21s-4.676-.989-6.364-2.75C3.948 16.488 3 14.1 3 11.61V9.26m0 0V7.695a2.4 2.4 0 0 1 .659-1.66c.422-.44.994-.687 1.591-.687s1.169.247 1.591.687a2.4 2.4 0 0 1 .659 1.66v1.566a2.4 2.4 0 0 1-.659 1.66c-.422.44-.994.688-1.591.688a2.203 2.203 0 0 1-1.591-.688A2.4 2.4 0 0 1 3 9.26z" />
  <path d="M12 5.348a2.4 2.4 0 0 1 .659-1.66c.422-.44.994-.688 1.591-.688s1.169.247 1.591.688a2.4 2.4 0 0 1 .659 1.66v2.348" />
  <path d="M12 9.26a2.4 2.4 0 0 1-.659 1.661c-.422.44-.994.688-1.591.688a2.204 2.204 0 0 1-1.591-.688 2.4 2.4 0 0 1-.659-1.66V5.348a2.4 2.4 0 0 1 .659-1.66C8.581 3.248 9.153 3 9.75 3s1.169.247 1.591.688A2.4 2.4 0 0 1 12 5.348V9.26z" />
  <path d="M12 16.304c0-1.038.395-2.033 1.098-2.767a3.673 3.673 0 0 1 2.652-1.146" />
</svg>
